X: 72
T:Sandy Boys
S:Danny Miller
M:C|
L:1/8
R:Reel
S:https://tunearch.org/wiki/Sandy_Boys
K:Amix
e2[e2e2] efge|d2[c2e2] [A2e2]AB|+slide+[c2e2][A2e2]+slide+[c2e2][A2e2]|d2-[d2f2]-d2-[d2f2]|
[e2e2][e2e2] efge|d2[c2e2] [A2e2]AB|cdec d2c2|1A4-A4:|2 A4-A2||
|:eg|abag egec|dA c2 A2ef|gagf efge|a2ag a2eg|
abag egec|dA c2A2AB|cdec d2c2|1 A4-A2:|2 A4-A4||

